X:475
T:Happy Boy Schottische
C:Phillips Collection Vol. 2
M:4/4
Q:150
L:1/8
K:G
(3DEF|GABAG2G2|BdgBd3g|1feAB cBcd|(3efe d2B2:|
|2feAB cBAF|G2[B2G2]G2|:gf||(3efe [e2c2] (3efe [e2c2]|
dBGB d2BG|D2AB cBAF|1GABcd2:|2G2[G,2G2][G,2G2]|]

